!!!OTL: Renduo shouduo haozhongtian
!!!ARE: Asia, China,ÿJiangsu Yancheng
!! III, 459
!!!SCT: C12024
!!!YEM: Copyright 1995, estate of Helmut Schaffrath.
**kern
*ICvox
*Ivox
*M2/4
*k[f#c#g#d#]
*E:
{8.f#
16f#
8f#
8f#
=1
8f#
8g#
8b
8b
=2
4cc#
4ee
=3
4cc#
4b}
=4
{8.g#
16b
8cc#
8cc#
=5
8.b
16g#
8g#
8e
=6
4f#
4r}
=7
{2cc#
=8
8.cc#
16b
8g#
8e
=9
4f#
4r}
=10
{2cc#
=11
8b
8g#
8b
8cc#
=12
8cc#
8b
4g#}
=13
{8c#
8c#
8c#
8e
=14
8.f#
16g#
8b
8b
=15
4b
8b
8g#
=16
4f#
8f#
8g#
=17
8f#
8e
4c#
=18
4B
4r}
=19
{4c#
8e
8c#
=20
4B
4r}
=21
{8.f#
8f#
8f#
16f#
=22
8f#
8g#
8b
8cc#
=23
8b
8g#
8g#
8e
=24
4f#
4r}
=25
{4.cc#
8e
=26
8cc#
8ee
8cc#
8g#
=27
4b
8b
8g#
=28
8.f#
16f#
8f#
8g#
=29
8f#
8e
4c#
=30
4B
4r}
=31
{8.c#
16e
8.c#
16e
=32
4f#
8f#
8e
=33
8b
8b
8g#
8e
=34
4f#
4r}
=35
{8.f#
16f#
8f#
8g#
=36
8f#
8g#
8b
8cc#
=37
8.cc#
16cc#
8b
8g#
=38
4b
8b
8cc#
=39
8b
8g#
8g#
8e
=40
4f#
4r}
=41
{2cc#
=42
8.cc#
16cc#
8b
8g#
=43
8e
8f#
4g#
=44
8f#
8e
4c#
=45
4B
4r}
==
!!!AGN: Haozi, Cheshui haozi
!!!AMT: simple duple
!!!AIN: vox
!!!EED: Helmut Schaffrath
!!!EEV: 1.0
*-
